assets/media/img/logo.svg

<svg width="269" height="57" viewBox="0 0 269 57" fill="none" xmlns="http://www.w3.org/2000/svg">
<g clip-path="url(#clip0_331_1077)">
<path d="M56.1008 47.3001C50.2008 47.3001 45.5008 45.3001 41.8008 41.2001C41.3008 40.6001 41.1008 40.0001 41.2008 39.3001C41.3008 38.6001 41.6008 38.0001 42.2008 37.6001C42.7008 37.1001 43.3008 36.9001 43.9008 37.0001C44.6008 37.1001 45.2008 37.4001 45.7008 38.0001C48.2008 40.8001 51.7008 42.2001 56.1008 42.2001C60.4008 42.2001 63.8008 40.8001 66.3008 38.0001C68.9008 35.2001 70.3008 31.2001 70.6008 26.0001H60.2008C59.5008 26.0001 58.9008 25.8001 58.4008 25.4001C58.0008 24.9001 57.8008 24.3001 57.8008 23.6001C57.8008 22.8001 58.0008 22.2001 58.4008 21.8001C58.9008 21.3001 59.5008 21.0001 60.2008 21.0001H70.5008C70.0008 16.1001 68.5008 12.3001 66.0008 9.7001C63.6008 7.1001 60.3008 5.8001 56.1008 5.8001C51.7008 5.8001 48.2008 7.2001 45.7008 10.1001C45.2008 10.6001 44.6008 10.9001 43.9008 11.0001C43.3008 11.0001 42.7008 10.8001 42.2008 10.4001C41.6008 9.9001 41.3008 9.3001 41.2008 8.6001C41.1008 7.9001 41.3008 7.3001 41.8008 6.8001C45.5008 2.7001 50.2008 0.600098 56.1008 0.600098C62.1008 0.600098 66.9008 2.7001 70.4008 6.9001C74.0008 11.1001 75.8008 16.8001 75.8008 24.1001C75.8008 31.3001 74.0008 37.0001 70.4008 41.3001C66.9008 45.2001 62.2008 47.3001 56.1008 47.3001Z" fill="black"/>
<path d="M203.598 47.3999C197.498 47.3999 192.698 45.2999 189.198 41.0999C185.698 36.7999 183.898 31.0999 183.898 23.8999C183.898 16.5999 185.698 10.8999 189.198 6.6999C192.698 2.4999 197.498 0.399902 203.598 0.399902C208.898 0.399902 213.298 2.1999 216.898 5.8999C220.598 9.5999 222.498 14.5999 222.798 20.7999V21.0999C222.798 21.6999 222.498 22.2999 221.998 22.7999C221.598 23.2999 220.998 23.5999 220.198 23.5999H188.998C188.998 29.1999 190.098 33.5999 192.398 36.9999C194.798 40.3999 198.498 42.0999 203.498 42.0999C206.098 42.0999 208.498 41.5999 210.698 40.4999C212.998 39.2999 214.698 37.8999 215.998 36.0999C216.398 35.4999 216.998 35.1999 217.598 34.9999C218.298 34.8999 218.998 34.9999 219.498 35.3999C220.098 35.7999 220.398 36.2999 220.598 36.9999C220.698 37.6999 220.598 38.3999 220.198 38.8999C218.498 41.3999 216.098 43.3999 213.098 44.9999C210.198 46.5999 206.998 47.3999 203.598 47.3999ZM189.398 18.5999H217.198C216.498 14.4999 214.898 11.2999 212.498 9.0999C210.098 6.8999 207.198 5.6999 203.598 5.6999C199.698 5.6999 196.598 6.7999 194.098 9.0999C191.798 11.2999 190.198 14.4999 189.398 18.5999Z" fill="black"/>
<path d="M229.9 47.2001C229.4 46.8001 229.1 46.2001 228.9 45.5001C228.8 44.8001 229 44.2001 229.5 43.7001L245.7 21.8001L232.2 4.30009C231.8 3.70009 231.6 3.10009 231.7 2.50009C231.8 1.80009 232.2 1.20009 232.7 0.700094C233.3 0.300094 233.9 0.200092 234.5 0.300092C235.2 0.400092 235.8 0.700092 236.2 1.30009L249 17.5001L261.8 1.00009C262.2 0.400093 262.8 0.100093 263.4 9.27746e-05C264.1 -0.0999072 264.8 0.100093 265.3 0.500093C265.9 0.900093 266.2 1.50009 266.3 2.20009C266.4 2.80009 266.2 3.50009 265.8 4.00009L252.3 21.5001L268.6 43.4001C269 43.9001 269.1 44.5001 269 45.2001C268.9 45.9001 268.6 46.5001 268 46.9001C267.5 47.3001 266.9 47.5001 266.2 47.3001C265.5 47.2001 264.9 46.9001 264.5 46.4001L249 26.4001L233.5 46.4001C233.1 46.9001 232.5 47.2001 231.8 47.3001C231.1 47.7001 230.5 47.6001 229.9 47.2001Z" fill="black"/>
<path fill-rule="evenodd" clip-rule="evenodd" d="M19.4018 2.2001C18.6018 -0.0999024 15.4018 -0.0999024 14.6018 2.2001L0.101768 44.3001C-0.498232 45.9001 0.801768 47.6001 2.50177 47.6001H2.60177C3.70177 47.6001 4.60177 46.9001 5.00177 45.9001L16.2018 13.3001L17.0018 11.0001L17.8018 13.3001L29.1018 46.0001C29.5018 47.0001 30.4018 47.7001 31.5018 47.7001H31.6018C33.3018 47.7001 34.6018 46.0001 34.0018 44.4001L19.4018 2.2001Z" fill="black"/>
<path d="M177.398 45.0999V54.3999C177.398 55.7999 176.298 56.8999 174.898 56.8999C174.198 56.8999 173.598 56.5999 173.098 56.1999C172.598 55.7999 172.398 55.0999 172.398 54.3999V47.5999H84.8984C84.1984 47.5999 83.5984 47.2999 83.0984 46.8999C82.5984 46.4999 82.3984 45.7999 82.3984 45.0999V26.4999C82.3984 25.0999 83.4984 23.9999 84.8984 23.9999C86.2984 23.9999 87.3984 25.0999 87.3984 26.4999V42.5999H110.098V18.8999C110.098 17.4999 111.198 16.3999 112.598 16.3999C113.998 16.3999 115.098 17.4999 115.098 18.8999V42.5999H137.798V11.2999C137.798 9.8999 138.898 8.7999 140.298 8.7999C141.698 8.7999 142.798 9.8999 142.798 11.2999V42.5999H167.198V2.8999C167.198 1.4999 168.298 0.399902 169.698 0.399902C171.098 0.399902 172.198 1.4999 172.198 2.8999V42.6999H174.698C176.198 42.5999 177.398 43.7999 177.398 45.0999Z" fill="url(#paint0_linear_331_1077)"/>
</g>
<defs>
<linearGradient id="paint0_linear_331_1077" x1="152.218" y1="14.9163" x2="89.7423" y2="86.4697" gradientUnits="userSpaceOnUse">
<stop stop-color="#AF9B8E"/>
<stop offset="0.3961" stop-color="#807269"/>
<stop offset="0.7949" stop-color="#564E49"/>
<stop offset="1" stop-color="#46403C"/>
</linearGradient>
<clipPath id="clip0_331_1077">
<rect width="269" height="57" fill="white"/>
</clipPath>
</defs>
</svg>

<svg width="269" height="57" fill="none" xmlns="http://www.w3.org/2000/svg"><g clip-path="url(#clip0_331_1077)"><path d="M56.1 47.3c-5.9 0-10.6-2-14.3-6.1-.5-.6-.7-1.2-.6-1.9.1-.7.4-1.3 1-1.7.5-.5 1.1-.7 1.7-.6.7.1 1.3.4 1.8 1 2.5 2.8 6 4.2 10.4 4.2 4.3 0 7.7-1.4 10.2-4.2 2.6-2.8 4-6.8 4.3-12H60.2c-.7 0-1.3-.2-1.8-.6-.4-.5-.6-1.1-.6-1.8 0-.8.2-1.4.6-1.8.5-.5 1.1-.8 1.8-.8h10.3c-.5-4.9-2-8.7-4.5-11.3-2.4-2.6-5.7-3.9-9.9-3.9-4.4 0-7.9 1.4-10.4 4.3-.5.5-1.1.8-1.8.9-.6 0-1.2-.2-1.7-.6-.6-.5-.9-1.1-1-1.8-.1-.7.1-1.3.6-1.8C45.5 2.7 50.2.6 56.1.6c6 0 10.8 2.1 14.3 6.3 3.6 4.2 5.4 9.9 5.4 17.2 0 7.2-1.8 12.9-5.4 17.2-3.5 3.9-8.2 6-14.3 6zm147.498.1c-6.1 0-10.9-2.1-14.4-6.3-3.5-4.3-5.3-10-5.3-17.2 0-7.3 1.8-13 5.3-17.2 3.5-4.2 8.3-6.3 14.4-6.3 5.3 0 9.7 1.8 13.3 5.5 3.7 3.7 5.6 8.7 5.9 14.9v.3c0 .6-.3 1.2-.8 1.7-.4.5-1 .8-1.8.8h-31.2c0 5.6 1.1 10 3.4 13.4 2.4 3.4 6.1 5.1 11.1 5.1 2.6 0 5-.5 7.2-1.6 2.3-1.2 4-2.6 5.3-4.4.4-.6 1-.9 1.6-1.1.7-.1 1.4 0 1.9.4.6.4.9.9 1.1 1.6.1.7 0 1.4-.4 1.9-1.7 2.5-4.1 4.5-7.1 6.1-2.9 1.6-6.1 2.4-9.5 2.4zm-14.2-28.8h27.8c-.7-4.1-2.3-7.3-4.7-9.5-2.4-2.2-5.3-3.4-8.9-3.4-3.9 0-7 1.1-9.5 3.4-2.3 2.2-3.9 5.4-4.7 9.5zM229.9 47.2c-.5-.4-.8-1-1-1.7-.1-.7.1-1.3.6-1.8l16.2-21.9-13.5-17.5c-.4-.6-.6-1.2-.5-1.8.1-.7.5-1.3 1-1.8.6-.4 1.2-.5 1.8-.4.7.1 1.3.4 1.7 1L249 17.5 261.8 1c.4-.6 1-.9 1.6-1 .7-.1 1.4.1 1.9.5.6.4.9 1 1 1.7.1.6-.1 1.3-.5 1.8l-13.5 17.5 16.3 21.9c.4.5.5 1.1.4 1.8-.1.7-.4 1.3-1 1.7-.5.4-1.1.6-1.8.4-.7-.1-1.3-.4-1.7-.9l-15.5-20-15.5 20c-.4.5-1 .8-1.7.9-.7.4-1.3.3-1.9-.1z" fill="#000"/><path fill-rule="evenodd" clip-rule="evenodd" d="M19.402 2.2c-.8-2.3-4-2.3-4.8 0L.102 44.3c-.6 1.6.7 3.3 2.4 3.3h.1c1.1 0 2-.7 2.4-1.7l11.2-32.6.8-2.3.8 2.3 11.3 32.7c.4 1 1.3 1.7 2.4 1.7h.1c1.7 0 3-1.7 2.4-3.3l-14.6-42.2z" fill="#000"/><path d="M177.398 45.1v9.3c0 1.4-1.1 2.5-2.5 2.5-.7 0-1.3-.3-1.8-.7-.5-.4-.7-1.1-.7-1.8v-6.8h-87.5c-.7 0-1.3-.3-1.8-.7-.5-.4-.7-1.1-.7-1.8V26.5c0-1.4 1.1-2.5 2.5-2.5s2.5 1.1 2.5 2.5v16.1h22.7V18.9c0-1.4 1.1-2.5 2.5-2.5s2.5 1.1 2.5 2.5v23.7h22.7V11.3c0-1.4 1.1-2.5 2.5-2.5s2.5 1.1 2.5 2.5v31.3h24.4V2.9c0-1.4 1.1-2.5 2.5-2.5s2.5 1.1 2.5 2.5v39.8h2.5c1.5-.1 2.7 1.1 2.7 2.4z" fill="url(#paint0_linear_331_1077)"/></g><defs><linearGradient id="paint0_linear_331_1077" x1="152.218" y1="14.916" x2="89.742" y2="86.47" gradientUnits="userSpaceOnUse"><stop stop-color="#AF9B8E"/><stop offset=".396" stop-color="#807269"/><stop offset=".795" stop-color="#564E49"/><stop offset="1" stop-color="#46403C"/></linearGradient><clipPath id="clip0_331_1077"><path fill="#fff" d="M0 0h269v57H0z"/></clipPath></defs></svg>
